symbolic/status/task-due-symbolic.svg

<svg width="16" height="16" version="1.1" xmlns="http://www.w3.org/2000/svg">
 <path d="m7.9685-2.5315e-7c-1.0686-0.0284-2.0284 0.93145-2 2h-4s-1 0-1 1v11c0 1 1 1 1 1h9v-2-1h-7v-1h7v-2h-7v-1h7v-2h-7v-1h8v1h1.8438 1.1562v-3c0-1-1-1-1-1h-4c0.0469-1.0818-0.93065-2.0219-2-2zm0 1c0.83678-0.0296 1.3543 1.1528 0.71875 1.7188-0.54266 0.60179-1.6775 0.18423-1.7188-0.625-0.0722-0.57256 0.42311-1.1073 1-1.0938z" color="#000000" fill="#f8f8f2"/>
 <path class="warning" d="m11.969 7 1e-5 4 0.25 2h1.5l0.25-2-1e-5 -4zm0 7v2h2v-2z" color="#bebebe" fill="#ff9800"/>
</svg>

<svg xmlns="http://www.w3.org/2000/svg" width="16" height="16" version="1.1">
 <path style="fill:#dfdfdf" d="M 8,0 A 2,2 0 0 0 6,2 H 2 C 1.446,2 1,2.446 1,3 V 14 C 1,14.554 1.446,15 2,15 H 11 V 12 H 4 V 11 H 11 V 9 H 4 V 8 H 11 V 6 H 4 V 5 H 12 V 6 H 15 V 3 C 15,2.446 14.554,2 14,2 H 10 A 2,2 0 0 0 8,0 Z M 8,1 A 1,1 0 0 1 9,2 1,1 0 0 1 8,3 1,1 0 0 1 7,2 1,1 0 0 1 8,1 Z"/>
 <path style="fill:#f44336" class="error" d="M 12,7 V 11 L 12.25,13 H 13.75 L 14,11 V 7 Z M 12,14 V 16 H 14 V 14 Z"/>
</svg>
